!!!OTL: Guanggun kuqi
!!!ARE: Asia, China,ÿLiaoning, Haicheng
!! III, 300
!!!SCT: C1565
!!!YEM: Copyright 1995, estate of Helmut Schaffrath.
**kern
*ICvox
*Ivox
!! Mixed meters:  4/4; 2/4
*M2/4
*k[b-]
*F:
{4dd
4ee
8dd
16ee
16dd
8cc
8dd
=1
8a
8a
8g
8d
2f}
=2
{8r
8ee
8ee
8ee
4dd
8cc
8dd
=3
8a
8a
8g
8d
2f}
=4
{8dd
8ff
4a
8dd
8ff
8a
8cc
=5
8dd
8cc
4dd
4a
8a
8a
=6
8a
8g
8f
8f
2g
=7
2ff}
=8
*M4/4
{8dd
8gg
8ee
8dd
4.cc
8dd
=9
8a
8a
8g
8d
2f}
=10
{8a
4g
8f
2g
=11
8a
4g
8d
2f}
=12
{8gg
8ee
8dd
8cc
2dd
=13
8a
8a
8g
8d
2f}
=14
{4a
4cc
8gg
8ee
8dd
8cc
=15
8a
8cc
8g
8d
2f}
=16
{8ee
4dd
8cc
4dd
4r
=17
8a
8a
8g
8d
2f}
=18
{8a
8cc
8a
8cc
8dd
8ff
8a
8cc
=19
8dd
8cc
8dd
8ff
2cc}
=20
{8.dd
16cc
8dd
8ff
2a
=21
8.dd
16cc
8dd
8ff
2a}
=22
{4g
4a
4g
8.a
16cc
=23
8a
8g
8f
8f
2g
=24
2ff}
==
!!!AGN: Xiaodiao
!!!AMT: irregular
!!!AIN: vox
!!!EED: Helmut Schaffrath
!!!EEV: 1.0
*-
